public/images/hero-bg.svg

<svg width="780" height="656" viewBox="0 0 780 656" fill="none" xmlns="http://www.w3.org/2000/svg"><path d="M183.157 135.525c-10.088-3.006-17.049-14.38-18.893-30.861-.099-.885-.876-.885-.975 0-1.844 16.481-8.805 27.855-18.892 30.861-.54.162-.524 1.427.016 1.588 10.083 3.015 17.041 14.395 18.88 30.885.097.885.872.859.971-.026 1.844-16.484 8.805-27.858 18.893-30.864.539-.159.539-1.421 0-1.583zM635.478 389.449c-13.003-3.952-21.977-18.907-24.355-40.577-.127-1.163-1.129-1.163-1.256 0-2.377 21.67-11.352 36.625-24.355 40.577-.696.213-.676 1.876.02 2.088 12.999 3.964 21.969 18.926 24.339 40.607.125 1.163 1.125 1.13 1.252-.033 2.378-21.674 11.352-36.629 24.355-40.581.696-.209.696-1.868 0-2.081z" fill="#AEA8FF" stroke="#AEA8FF" stroke-width="4" stroke-linecap="round" stroke-linejoin="round"/><path d="M592.381 225.934c34.363-2.301 48.954-39.313 36.762-61.35-12.191-22.038-23.347-4.88-12.524 2.735 12.754 8.973 73.111 2.785 71.33-57.786M142.447 401.07 86 413.131m56.447 6.272-40.044 19.298m56.93-8.684-16.886 19.298" stroke="#222" stroke-width="4" stroke-linecap="round" stroke-linejoin="round"/><path d="m240.636 215.211-34.505 156.911c-4.907 37.968 31.842 68.509 72.254 81.762l165.996 31.667c42.803 8.166 83.063-23.07 85.788-66.56 0 0 6.844-61.998 9.338-101.869 2.485-39.72 3.428-101.852 3.428-101.852 2.767-44.165-46.183-93.027-90.269-89.2l-146.518 26.321c-33.887 2.942-61.151 29.086-65.512 62.82z" fill="#3582E2"/><path d="M213.688 203.812s-8.221 43.924-11.899 72.302c-3.714 28.658-6.968 73.667-6.968 73.667-5.3 41.005 22.253 79.044 62.867 86.792 0 0 48.499 10.929 80.636 17.084 32.74 6.271 85.381 14.587 85.381 14.587 39.95 7.621 77.525-21.532 80.069-62.123 0 0 6.583-63.872 9.198-104.92 2.73-42.847 4.26-109.856 4.26-109.856 2.583-41.221-32.106-75.087-73.253-71.515 0 0-49.573 1.59-80.568 4.311-30.342 2.663-76.35 9.312-76.35 9.312-37.954 3.295-68.49 32.577-73.373 70.359z" fill="#3394FF"/><path d="M290.744 224.757c-.891 61.438 22.951 81.434 30.501 85.153.986.486 1.967-.208 2.111-1.297l11.088-83.619a2 2 0 0 1 1.982-1.737h31.225a1.993 1.993 0 0 1 1.989 2.217c-1.61 14.168-4.229 38.244-4.565 45.196-.05 1.029.788 1.746 1.813 1.642 31.447-3.203 48.837-32.1 54.171-47.661a2.045 2.045 0 0 1 1.927-1.394h33.747c1.399 0 2.37 1.385 1.843 2.681-7.741 19.073-26.57 52.956-50.778 63.206-1.845.781-1.99 3.934-.196 4.826 28.23 14.031 41.851 49.757 45.758 69.044.263 1.295-.812 2.438-2.126 2.305-13.507-1.358-35.715-3.648-40.756-4.375-.651-.094-1.077-.59-1.179-1.24-5.225-33.531-33.206-46.237-48.464-48.827-1.116-.189-2.117.64-2.212 1.768l-3.52 41.806c-.092 1.089-1.079 1.901-2.168 1.813-87.955-7.096-101.405-75.983-96.111-131.247a1.971 1.971 0 0 1 1.945-1.786c9.667-.135 25.604-.29 30.543-.096.876.034 1.445.746 1.432 1.622z" fill="#fff" stroke="#fff" stroke-width="4" stroke-linejoin="round"/><path d="M281.122 323.333c14.628 11.915 34.799 20.115 62.198 22.32a1.987 1.987 0 0 0 2.134-1.816l3.52-41.806c.095-1.128 1.096-1.957 2.213-1.768 15.257 2.59 43.238 15.296 48.463 48.827.102.65.528 1.146 1.18 1.24 5.04.727 27.248 3.017 40.755 4.375 1.314.132 2.389-1.01 2.126-2.305-3.907-19.287-17.528-55.013-45.758-69.045-1.794-.891-1.649-4.044.196-4.825 24.208-10.25 43.037-44.134 50.779-63.206.526-1.296-.444-2.681-1.844-2.681h-33.747c-.874 0-1.643.566-1.927 1.394-5.334 15.561-22.724 44.458-54.171 47.661-1.025.104-1.863-.613-1.813-1.642.336-6.952 2.955-31.028 4.565-45.196a1.993 1.993 0 0 0-1.989-2.217h-31.224a2 2 0 0 0-1.983 1.737l-11.088 83.619c-.144 1.089-1.125 1.783-2.111 1.297-7.55-3.719-31.392-23.715-30.501-85.153.013-.876-.556-1.588-1.432-1.622-4.939-.194-20.876-.039-30.543.096a1.98 1.98 0 0 0-1.946 1.794c-1.79 18.695-1.435 38.95 3.224 57.843" stroke="#222" stroke-width="4" stroke-linejoin="round"/><path d="M396.701 452.693c26.535 4.342 56.35 9.36 75.263-9.167 18.912-18.526 19.977-32.324 21.71-44.868 10.132-73.333 20.815-195.877 13.991-227.719-4.342-20.263-16.403-58.377-61.271-61.754-35.895-2.701-136.535 6.272-190.088 19.298-19.298 4.695-41.008 20.071-48.727 48.246-9.65 35.219-23.641 157.756-23.641 175.131 0 25.087 21.228 77.675 89.254 91.666 54.421 11.193 125.921 25.57 157.763 31.36 29.43 5.351 78.351-6.851 86.842-47.763 10.614-51.14 23.64-207.456 13.026-239.298" stroke="#222" stroke-width="4" stroke-linejoin="round"/><path d="M634.963 378.238c-15.746-4.217-26.612-20.175-29.49-43.299-.155-1.241-1.368-1.241-1.522 0-2.879 23.124-13.745 39.082-29.491 43.299-.842.227-.818 2.001.024 2.228 15.741 4.229 26.602 20.195 29.472 43.331.152 1.241 1.362 1.205 1.517-.036 2.878-23.128 13.744-39.086 29.49-43.303.842-.223.842-1.993 0-2.22zM178.695 124.525c-10.087-3.006-17.048-14.38-18.892-30.861-.099-.885-.876-.885-.975 0-1.844 16.481-8.805 27.855-18.893 30.861-.539.162-.523 1.427.016 1.588 10.084 3.015 17.042 14.395 18.88 30.885.098.885.873.859.972-.026 1.844-16.484 8.805-27.858 18.892-30.864.54-.159.54-1.421 0-1.583z" stroke="#1D1D1F" stroke-width="4" stroke-linecap="round" stroke-linejoin="round"/><path d="M543.367 112.079a7.72 7.72 0 1 1-3.599-6.528M116.052 248.726a7.72 7.72 0 1 1 7.055 2.407M252.724 492.942a7.72 7.72 0 1 1 1.554-7.291" stroke="#222" stroke-width="4" stroke-linecap="round"/></svg>

<svg width="780" height="656" viewBox="0 0 780 656" fill="none" xmlns="http://www.w3.org/2000/svg">
<path d="M183.157 135.525C173.069 132.519 166.108 121.145 164.264 104.664C164.165 103.779 163.388 103.779 163.289 104.664C161.445 121.145 154.484 132.519 144.397 135.525C143.857 135.687 143.873 136.952 144.413 137.113C154.496 140.128 161.454 151.508 163.293 167.998C163.39 168.883 164.165 168.857 164.264 167.972C166.108 151.488 173.069 140.114 183.157 137.108C183.696 136.949 183.696 135.687 183.157 135.525Z" fill="#AEA8FF" stroke="#AEA8FF" stroke-width="4" stroke-linecap="round" stroke-linejoin="round"/>
<path d="M635.478 389.449C622.475 385.497 613.501 370.542 611.123 348.872C610.996 347.709 609.994 347.709 609.867 348.872C607.49 370.542 598.515 385.497 585.512 389.449C584.816 389.662 584.836 391.325 585.532 391.537C598.531 395.501 607.501 410.463 609.871 432.144C609.996 433.307 610.996 433.274 611.123 432.111C613.501 410.437 622.475 395.482 635.478 391.53C636.174 391.321 636.174 389.662 635.478 389.449Z" fill="#AEA8FF" stroke="#AEA8FF" stroke-width="4" stroke-linecap="round" stroke-linejoin="round"/>
<path d="M592.381 225.934C626.744 223.633 641.335 186.621 629.143 164.584C616.952 142.546 605.796 159.704 616.619 167.319C629.373 176.292 689.73 170.104 687.949 109.533" stroke="#222222" stroke-width="4" stroke-linecap="round" stroke-linejoin="round"/>
<path d="M142.447 401.07L86 413.131M142.447 419.403L102.403 438.701M159.333 430.017L142.447 449.315" stroke="#222222" stroke-width="4" stroke-linecap="round" stroke-linejoin="round"/>
<path d="M240.636 215.211L206.131 372.122C201.224 410.09 237.973 440.631 278.385 453.884L444.381 485.551C487.184 493.717 527.444 462.481 530.169 418.991C530.169 418.991 537.013 356.993 539.507 317.122C541.992 277.402 542.935 215.27 542.935 215.27C545.702 171.105 496.752 122.243 452.666 126.07L306.148 152.391C272.261 155.333 244.997 181.477 240.636 215.211Z" fill="#3582E2"/>
<path d="M213.688 203.812C213.688 203.812 205.467 247.736 201.789 276.114C198.075 304.772 194.821 349.781 194.821 349.781C189.521 390.786 217.074 428.825 257.688 436.573C257.688 436.573 306.187 447.502 338.324 453.657C371.064 459.928 423.705 468.244 423.705 468.244C463.655 475.865 501.23 446.712 503.774 406.121C503.774 406.121 510.357 342.249 512.972 301.201C515.702 258.354 517.232 191.345 517.232 191.345C519.815 150.124 485.126 116.258 443.979 119.83C443.979 119.83 394.406 121.42 363.411 124.141C333.069 126.804 287.061 133.453 287.061 133.453C249.107 136.748 218.571 166.03 213.688 203.812Z" fill="#3394FF"/>
<path d="M290.744 224.757C289.853 286.195 313.695 306.191 321.245 309.91C322.231 310.396 323.212 309.702 323.356 308.613L334.444 224.994C334.576 224 335.424 223.257 336.426 223.257H367.651C368.846 223.257 369.775 224.287 369.64 225.474C368.03 239.642 365.411 263.718 365.075 270.67C365.025 271.699 365.863 272.416 366.888 272.312C398.335 269.109 415.725 240.212 421.059 224.651C421.343 223.823 422.112 223.257 422.986 223.257H456.733C458.132 223.257 459.103 224.642 458.576 225.938C450.835 245.011 432.006 278.894 407.798 289.144C405.953 289.925 405.808 293.078 407.602 293.97C435.832 308.001 449.453 343.727 453.36 363.014C453.623 364.309 452.548 365.452 451.234 365.319C437.727 363.961 415.519 361.671 410.478 360.944C409.827 360.85 409.401 360.354 409.299 359.704C404.074 326.173 376.093 313.467 360.835 310.877C359.719 310.688 358.718 311.517 358.623 312.645L355.103 354.451C355.011 355.54 354.024 356.352 352.935 356.264C264.98 349.168 251.53 280.281 256.824 225.017C256.92 224.008 257.756 223.245 258.769 223.231C268.436 223.096 284.373 222.941 289.312 223.135C290.188 223.169 290.757 223.881 290.744 224.757Z" fill="white" stroke="white" stroke-width="4" stroke-linejoin="round"/>
<path d="M281.122 323.333C295.75 335.248 315.921 343.448 343.32 345.653C344.409 345.74 345.362 344.926 345.454 343.837L348.974 302.031C349.069 300.903 350.07 300.074 351.187 300.263C366.444 302.853 394.425 315.559 399.65 349.09C399.752 349.74 400.178 350.236 400.83 350.33C405.87 351.057 428.078 353.347 441.585 354.705C442.899 354.837 443.974 353.695 443.711 352.4C439.804 333.113 426.183 297.387 397.953 283.355C396.159 282.464 396.304 279.311 398.149 278.53C422.357 268.28 441.186 234.396 448.928 215.324C449.454 214.028 448.484 212.643 447.084 212.643H413.337C412.463 212.643 411.694 213.209 411.41 214.037C406.076 229.598 388.686 258.495 357.239 261.698C356.214 261.802 355.376 261.085 355.426 260.056C355.762 253.104 358.381 229.028 359.991 214.86C360.126 213.673 359.197 212.643 358.002 212.643H326.778C325.775 212.643 324.927 213.386 324.795 214.38L313.707 297.999C313.563 299.088 312.582 299.782 311.596 299.296C304.046 295.577 280.204 275.581 281.095 214.143C281.108 213.267 280.539 212.555 279.663 212.521C274.724 212.327 258.787 212.482 249.12 212.617C248.107 212.631 247.27 213.402 247.174 214.411C245.384 233.106 245.739 253.361 250.398 272.254" stroke="#222222" stroke-width="4" stroke-linejoin="round"/>
<path d="M396.701 452.693C423.236 457.035 453.051 462.053 471.964 443.526C490.876 425 491.941 411.202 493.674 398.658C503.806 325.325 514.489 202.781 507.665 170.939C503.323 150.676 491.262 112.562 446.394 109.185C410.499 106.484 309.859 115.457 256.306 128.483C237.008 133.178 215.298 148.554 207.579 176.729C197.929 211.948 183.938 334.485 183.938 351.86C183.938 376.947 205.166 429.535 273.192 443.526C327.613 454.719 399.113 469.096 430.955 474.886C460.385 480.237 509.306 468.035 517.797 427.123C528.411 375.983 541.437 219.667 530.823 187.825" stroke="#222222" stroke-width="4" stroke-linejoin="round"/>
<path d="M634.963 378.238C619.217 374.021 608.351 358.063 605.473 334.939C605.318 333.698 604.105 333.698 603.951 334.939C601.072 358.063 590.206 374.021 574.46 378.238C573.618 378.465 573.642 380.239 574.484 380.466C590.225 384.695 601.086 400.661 603.956 423.797C604.108 425.038 605.318 425.002 605.473 423.761C608.351 400.633 619.217 384.675 634.963 380.458C635.805 380.235 635.805 378.465 634.963 378.238Z" stroke="#1D1D1F" stroke-width="4" stroke-linecap="round" stroke-linejoin="round"/>
<path d="M178.695 124.525C168.608 121.519 161.647 110.145 159.803 93.6636C159.704 92.7788 158.927 92.7788 158.828 93.6636C156.984 110.145 150.023 121.519 139.935 124.525C139.396 124.687 139.412 125.952 139.951 126.113C150.035 129.128 156.993 140.508 158.831 156.998C158.929 157.883 159.704 157.857 159.803 156.972C161.647 140.488 168.608 129.114 178.695 126.108C179.235 125.949 179.235 124.687 178.695 124.525Z" stroke="#1D1D1F" stroke-width="4" stroke-linecap="round" stroke-linejoin="round"/>
<path d="M543.367 112.079C543.367 116.342 539.911 119.799 535.648 119.799C531.385 119.799 527.928 116.342 527.928 112.079C527.928 107.816 531.385 104.36 535.648 104.36C537.163 104.36 538.576 104.797 539.768 105.551" stroke="#222222" stroke-width="4" stroke-linecap="round"/>
<path d="M116.052 248.726C113.183 245.572 113.414 240.69 116.567 237.821C119.721 234.952 124.603 235.183 127.472 238.336C130.341 241.49 130.11 246.372 126.956 249.241C125.836 250.261 124.496 250.889 123.107 251.133" stroke="#222222" stroke-width="4" stroke-linecap="round"/>
<path d="M252.724 492.942C249.933 496.165 245.058 496.515 241.835 493.724C238.612 490.933 238.263 486.058 241.054 482.835C243.845 479.612 248.72 479.263 251.942 482.054C253.088 483.046 253.87 484.301 254.278 485.651" stroke="#222222" stroke-width="4" stroke-linecap="round"/>
</svg>
